svg/OSM-icons/craft #ff8000 °ffffff !label=encrafts,deHerstellung, Produktion/16004;craft=blacksmith;[addr];[contact];!label=enblacksmith,deSchmied.svg

<svg xmlns="http://www.w3.org/2000/svg" viewBox="0 0 580 580" enable-background="new 0 0 580 580"><path fill="#111" stroke="#eee" stroke-width="3.408" d="m66.28 1.768c-41.34 0-64.57 21.371-64.57 65.04v450.12c0 40.844 20.895 62.23 62.19 62.23h452.02c41.31 0 62.23-20.315 62.23-62.23v-450.12c0-42.602-20.923-65.04-63.52-65.04-.003 0-448.5-.143-448.35 0z"/><path fill="#fff" d="m434.25 122.4h42.855l-32.14-53.57h-86.48c0 0 87.24 168.36 60.46 257.13-25.485 84.47-103.62 101.73-128.94 101.88-25.32-.156-103.46-17.418-128.94-101.88-26.785-88.77 60.46-257.13 60.46-257.13h-86.48l-32.14 53.57h42.855c0 0-62.38 94.17-47.45 232.64 14.849 137.68 155.29 153.94 188.25 155.86v.258c0 0 1.218 0 3.451-.088 2.232.088 3.45.088 3.45.088v-.258c32.958-1.919 173.4-18.18 188.25-155.86 14.935-138.47-47.45-232.64-47.45-232.64m-307.54 209.69c-8.242 0-14.923-6.681-14.923-14.923 0-8.241 6.682-14.923 14.923-14.923s14.923 6.682 14.923 14.923c0 8.242-6.681 14.923-14.923 14.923m14.923-126.27c-8.242 0-14.923-6.681-14.923-14.923s6.681-14.923 14.923-14.923 14.923 6.682 14.923 14.923-6.681 14.923-14.923 14.923m37.881 231.88c-8.242 0-14.923-6.682-14.923-14.923 0-8.242 6.681-14.923 14.923-14.923s14.923 6.681 14.923 14.923c0 8.241-6.681 14.923-14.923 14.923m110.49 42.473c-8.242 0-14.923-6.681-14.923-14.923 0-8.241 6.681-14.923 14.923-14.923 8.242 0 14.923 6.682 14.923 14.923 0 8.242-6.681 14.923-14.923 14.923m108.77-42.473c-8.242 0-14.924-6.682-14.924-14.923 0-8.242 6.682-14.923 14.924-14.923 8.241 0 14.923 6.681 14.923 14.923 0 8.241-6.682 14.923-14.923 14.923m21.811-246.8c0-8.242 6.681-14.923 14.923-14.923 8.241 0 14.923 6.682 14.923 14.923s-6.682 14.923-14.923 14.923c-8.243 0-14.923-6.682-14.923-14.923m29.846 141.19c-8.242 0-14.923-6.681-14.923-14.923 0-8.241 6.681-14.923 14.923-14.923 8.241 0 14.923 6.682 14.923 14.923-.0001 8.242-6.682 14.923-14.923 14.923"/></svg>

<?xml version="1.0" encoding="utf-8"?>
<!-- Generator: Adobe Illustrator 15.0.0, SVG Export Plug-In . SVG Version: 6.00 Build 0)  -->
<!DOCTYPE svg PUBLIC "-//W3C//DTD SVG 1.1//EN" "http://www.w3.org/Graphics/SVG/1.1/DTD/svg11.dtd">
<svg version="1.1" xmlns="http://www.w3.org/2000/svg" xmlns:xlink="http://www.w3.org/1999/xlink" x="0px" y="0px" width="580px"
	 height="580px" viewBox="0 0 580 580" enable-background="new 0 0 580 580" xml:space="preserve">
<g id="Layer_2_1_">
	<g id="Layer_2">
		<g id="g1327">
			<path id="path1329" fill="#111111" stroke="#EEEEEE" stroke-width="3.408" d="M66.275,1.768
				c-41.335,0-64.571,21.371-64.571,65.036v450.123c0,40.844,20.895,62.229,62.192,62.229h452.024
				c41.307,0,62.229-20.315,62.229-62.229V66.804c0-42.602-20.923-65.036-63.521-65.036C514.625,1.768,66.133,1.625,66.275,1.768z"
				/>
		</g>
	</g>
</g>
<g id="Layer_1">
	<path fill="#FFFFFF" d="M434.249,122.404h42.855l-32.142-53.57h-86.477c0,0,87.243,168.363,60.458,257.135
		C393.458,410.435,315.32,427.697,290,427.853c-25.32-0.156-103.458-17.418-128.944-101.885
		c-26.785-88.772,60.458-257.135,60.458-257.135h-86.477l-32.142,53.57h42.855c0,0-62.381,94.173-47.447,232.644
		c14.849,137.684,155.288,153.941,188.246,155.86v0.258c0,0,1.218,0,3.451-0.088c2.232,0.088,3.45,0.088,3.45,0.088v-0.258
		c32.958-1.919,173.397-18.177,188.246-155.86C496.631,216.577,434.249,122.404,434.249,122.404z M126.711,332.092
		c-8.242,0-14.923-6.681-14.923-14.923c0-8.241,6.682-14.923,14.923-14.923s14.923,6.682,14.923,14.923
		C141.634,325.411,134.953,332.092,126.711,332.092z M141.634,205.82c-8.242,0-14.923-6.681-14.923-14.923
		s6.681-14.923,14.923-14.923s14.923,6.682,14.923,14.923S149.876,205.82,141.634,205.82z M179.515,437.701
		c-8.242,0-14.923-6.682-14.923-14.923c0-8.242,6.681-14.923,14.923-14.923s14.923,6.681,14.923,14.923
		C194.438,431.019,187.757,437.701,179.515,437.701z M290,480.174c-8.242,0-14.923-6.681-14.923-14.923
		c0-8.241,6.681-14.923,14.923-14.923c8.242,0,14.923,6.682,14.923,14.923C304.923,473.493,298.242,480.174,290,480.174z
		 M398.769,437.701c-8.242,0-14.924-6.682-14.924-14.923c0-8.242,6.682-14.923,14.924-14.923c8.241,0,14.923,6.681,14.923,14.923
		C413.692,431.019,407.01,437.701,398.769,437.701z M420.58,190.897c0-8.242,6.681-14.923,14.923-14.923
		c8.241,0,14.923,6.682,14.923,14.923s-6.682,14.923-14.923,14.923C427.26,205.82,420.58,199.138,420.58,190.897z M450.426,332.092
		c-8.242,0-14.923-6.681-14.923-14.923c0-8.241,6.681-14.923,14.923-14.923c8.241,0,14.923,6.682,14.923,14.923
		C465.348,325.411,458.667,332.092,450.426,332.092z"/>
</g>
</svg>
